X:349
T:Det star ein friar uti gar'e
C:anon.
O:Norway
R:Springdans
Z:Transcribed by Frank Nordberg - http://www.musicaviva.com
F:http://abc.musicaviva.com/tunes/norway/det-star-ein-friar/det-star-ein-friar-1.abc
M:3/4
L:1/8
Q:320
K:F
z>C C>C|"F"F2A2 (3(GF)G|"F"F2E2D2|"C7"D2C2C2|"C7"C2:: z>A A>A|
w:Det st\aar ein fri-ar ut--i ga-r'e, mor lil-la. Hau hau! Kor man-ge
"Bb"B2B2A>G|"F"A4G>F|[1"C7"G2-G3/2F/ E>G|"F"c2:|[2"C7"G2-G3/2F/ (3(ED)E|"F"F2||
